icons/solid/file-duplicate.svg

<svg width="24" height="24" viewBox="0 0 24 24" fill="none" xmlns="http://www.w3.org/2000/svg">
<path fill-rule="evenodd" clip-rule="evenodd" d="M16.8293 20H8C6.34315 20 5 18.6569 5 17V6.17071C3.83481 6.58254 3 7.69378 3 9V19C3 20.6569 4.34315 22 6 22H14C15.3062 22 16.4175 21.1652 16.8293 20ZM7 5V6V17C7 17.5523 7.44772 18 8 18H17H18C19.6569 18 21 16.6569 21 15V8.82843C21 8.03278 20.6839 7.26972 20.1213 6.70711L16.2929 2.87868C15.7303 2.31607 14.9672 2 14.1716 2H10C8.34315 2 7 3.34315 7 5Z" fill="currentColor"/>
</svg>

<svg width="24" height="24" fill="none" xmlns="http://www.w3.org/2000/svg"><path fill-rule="evenodd" clip-rule="evenodd" d="M16.83 20H8a3 3 0 01-3-3V6.17A3.001 3.001 0 003 9v10a3 3 0 003 3h8a3.001 3.001 0 002.83-2zM7 5v12a1 1 0 001 1h10a3 3 0 003-3V8.828a3 3 0 00-.879-2.12l-3.828-3.83A3 3 0 0014.172 2H10a3 3 0 00-3 3z" fill="currentColor"/></svg>
